svgs/thin/leaf-maple.svg

<svg xmlns="http://www.w3.org/2000/svg" viewBox="0 0 512 512"><!--! Font Awesome Pro 6.3.0 by @fontawesome - https://fontawesome.com License - https://fontawesome.com/license (Commercial License) Copyright 2023 Fonticons, Inc. --><path d="M512 183.3c-.0938-8.719-4.594-16.56-12.03-21.03l-31.75-18.97l9-81c.875-7.594-1.719-15.03-7.125-20.38c-5.375-5.469-13.06-8.094-20.38-7.156l-81.06 9l-18.94-31.75c-4.469-7.438-12.24-11.9-20.96-11.99c-8.531 0-16.73 4.24-21.29 11.46l-60 94.31l3.719-14.56C253 82.75 250.4 74.03 244.2 68C237.1 62.03 229.3 59.59 219.1 62.5L199.7 72.94L160.1 28.16C150.7 16.34 130.5 16.66 121.6 27.84L81.78 72.94L62.5 62.5C61.91 62.19 61.28 61.94 60.63 61.78C52.25 59.63 43.47 62.03 37.22 68.13C31.03 74.19 28.47 82.84 30.34 91.19l30.72 149L31.03 253.2C21.81 257.1 16.03 265.8 16 275.8C15.97 285.9 21.69 294.7 30.94 298.8l118.5 52.5l-147.1 147.1C.7813 499.9 0 501.1 0 503.1c0 2.047 .7812 4.094 2.344 5.656C3.906 511.2 5.938 512 8 512s4.094-.7813 5.656-2.344l147.1-147.1L213.2 481C217.3 490.3 226.1 496 236.1 496c.0313 0 0 0 0 0c10.06-.0313 18.78-5.781 22.75-15.03l12.97-30.03l148.8 30.69c8.562 1.844 17.16-.6562 23.22-6.844c6.094-6.219 8.469-14.97 6.344-23.41c-.1562-.6562-.4062-1.281-.7187-1.875l-10.44-19.28l44.78-39.59c5.906-4.688 9.312-11.75 9.312-19.34s-3.406-14.66-9-19.09L439 312.3l11.22-21.22C452.3 282.7 449.1 274 444 267.8c-6.031-6.188-14.62-8.812-23.56-6.938l-14.25 3.656l94.31-60C507.8 199.9 512.1 191.1 512 183.3zM491.9 191l-136.8 87c-3.344 2.125-4.625 6.312-3.062 9.938c1.531 3.594 5.406 5.406 9.344 4.562l62.66-16.09c3.188-.5625 6.188 .25 8.375 2.531c2.156 2.219 2.969 5.219 2.938 6.375l-13.47 25c-1.781 3.25-1.062 7.312 1.75 9.781l50.19 44.31c2.062 1.656 3.25 4.156 3.25 6.844s-1.188 5.188-3.562 7.094l-49.88 44.06c-2.812 2.469-3.531 6.531-1.75 9.812l12.91 23.84c.4375 2.75-.4375 5.469-2.438 7.5c-2.125 2.219-5.156 3.188-8.375 2.375l-155.4-32.03c-3.938-.75-7.5 1.188-8.969 4.688l-15.53 36.03C242 479.6 237.4 480 236.1 480c-.3438-.0625-6-.25-8.219-5.438l-54.99-124.1l144.8-144.8c3.125-3.125 3.125-8.188 0-11.31s-8.188-3.125-11.31 0l-144.8 144.8L37.38 284.1C32.38 281.9 32 277.3 32 275.9c0-1.344 .4062-5.906 5.344-8.031l36.03-15.53c3.5-1.5 5.438-5.25 4.688-8.969L45.1 87.78C45.31 84.75 46.19 81.75 48.41 79.56C50.13 77.91 52.25 77 54.53 77c.4375 0 .9062 .0625 1.375 .125l23.84 12.91C83 91.78 87.06 91.13 89.56 88.28l44.31-50.19C137.2 33.97 144 33.66 147.8 38.41l44.06 49.88c2.469 2.781 6.5 3.5 9.781 1.75l23.16-12.75c3-.7187 6 .0625 8.25 2.219c2.25 2.188 3.156 5.25 2.562 8.062L219.5 150.5C218.5 154.3 220.4 158.3 224 159.9c3.594 1.469 7.812 .25 9.938-3.062l87-136.8C323.3 16.41 326.9 16 328.4 16c.9062 .0938 5.25 .375 7.562 4.25l21.59 36.16c1.625 2.688 4.656 4.125 7.75 3.844l86.19-9.594c2.656-.2813 5.312 .625 7.281 2.594c1.938 1.906 2.875 4.562 2.562 7.281l-9.594 86.13c-.375 3.094 1.156 6.125 3.844 7.75l36.13 21.62C495.5 178.3 495.1 182 496 183.5C496 184.1 495.7 188.7 491.9 191z"/></svg>

<svg xmlns="http://www.w3.org/2000/svg" viewBox="0 0 512 512"><!-- Font Awesome Pro 6.0.0-alpha2 by @fontawesome - https://fontawesome.com License - https://fontawesome.com/license (Commercial License) --><path d="M512 183.312C511.906 174.594 507.406 166.75 499.969 162.281H499.937L468.219 143.312L477.219 62.312C478.094 54.719 475.5 47.281 470.094 41.937C464.719 36.469 457.031 33.844 449.719 34.781L368.656 43.781L349.719 12.031C345.25 4.594 337.406 0.094 328.688 0H328.375C319.844 0 312.031 4.281 307.469 11.5L247.469 105.812L251.188 91.25C253.031 82.75 250.406 74.031 244.188 68C237.999 62.031 229.312 59.594 219.094 62.5L199.656 72.938L160.062 28.156C150.688 16.344 130.5 16.656 121.625 27.844L81.781 72.938L62.5 62.5C61.906 62.188 61.281 61.938 60.625 61.781C52.25 59.625 43.469 62.031 37.219 68.125C31.031 74.188 28.469 82.844 30.344 91.188L61.062 240.188L31.031 253.156C21.812 257.094 16.031 265.781 16 275.812C15.969 285.906 21.688 294.719 30.938 298.75L149.441 351.246L2.344 498.344C0.781 499.906 0 501.953 0 504C0 506.047 0.781 508.094 2.344 509.656C3.906 511.219 5.938 512 8 512S12.094 511.219 13.656 509.656L160.754 362.559L213.219 481C217.281 490.281 226.031 496 236.062 496C236.094 496 236.125 496 236.125 496C246.187 495.969 254.875 490.219 258.844 480.969L271.812 450.937L420.656 481.625C429.219 483.469 437.812 480.969 443.875 474.781C449.969 468.562 452.344 459.812 450.219 451.375C450.062 450.719 449.812 450.094 449.5 449.5L439.062 430.219L483.844 390.625C489.75 385.937 493.156 378.875 493.156 371.281S489.75 356.625 484.156 352.187L439 312.281L450.219 291.063C452.312 282.719 449.999 274 444 267.812C437.969 261.625 429.375 259 420.438 260.875L406.188 264.531L500.5 204.531C507.812 199.906 512.094 191.969 512 183.312ZM491.938 191.031L355.188 278.031C351.844 280.156 350.563 284.344 352.125 287.969C353.656 291.563 357.531 293.375 361.469 292.531L424.125 276.438C427.313 275.875 430.313 276.688 432.5 278.969C434.656 281.188 435.469 284.188 435.438 285.344L421.969 310.344C420.188 313.594 420.906 317.656 423.719 320.125L473.906 364.438C475.969 366.094 477.156 368.594 477.156 371.281S475.969 376.469 473.594 378.375L423.719 422.438C420.906 424.906 420.188 428.969 421.969 432.25L434.875 456.094C435.313 458.844 434.438 461.563 432.438 463.594C430.313 465.813 427.281 466.781 424.063 465.969L268.656 433.938C264.719 433.188 261.156 435.125 259.688 438.625L244.156 474.656C242.031 479.594 237.438 480 236.094 480C235.75 479.938 230.094 479.75 227.875 474.562L172.883 350.43L317.656 205.656C320.781 202.531 320.781 197.469 317.656 194.344S309.469 191.219 306.344 194.344L161.57 339.117L37.375 284.094C32.375 281.906 32 277.25 32 275.875C32 274.531 32.406 269.969 37.344 267.844L73.375 252.312C76.875 250.812 78.813 247.062 78.063 243.344L45.999 87.781C45.312 84.75 46.188 81.75 48.406 79.562C50.125 77.906 52.25 77 54.531 77C54.969 77 55.438 77.062 55.906 77.125L79.75 90.031C83 91.781 87.062 91.125 89.562 88.281L133.875 38.094C137.188 33.969 144 33.656 147.812 38.406L191.875 88.281C194.344 91.063 198.375 91.781 201.656 90.031L224.812 77.281C227.812 76.563 230.812 77.344 233.062 79.5C235.312 81.688 236.219 84.75 235.625 87.562L219.469 150.531C218.5 154.344 220.438 158.312 224.031 159.875C227.625 161.344 231.844 160.125 233.969 156.813L320.969 20.063C323.281 16.406 326.875 16 328.406 16C329.312 16.094 333.656 16.375 335.969 20.25L357.562 56.406C359.187 59.094 362.219 60.531 365.312 60.25L451.5 50.656C454.156 50.375 456.812 51.281 458.781 53.25C460.719 55.156 461.656 57.812 461.344 60.531L451.75 146.656C451.375 149.75 452.906 152.781 455.594 154.406L491.719 176.031C495.531 178.281 495.969 182 496 183.5C496.031 184.969 495.656 188.656 491.938 191.031Z"/></svg>
